remix/Finance/vip-crown-2-fill.svg

<svg viewBox="0 0 24 24" fill="currentColor" xmlns="http://www.w3.org/2000/svg"><path d="M2.80577 5.20006L7.00505 7.99958L11.1913 2.13881C11.5123 1.6894 12.1369 1.58531 12.5863 1.90631C12.6761 1.97045 12.7546 2.04901 12.8188 2.13881L17.0051 7.99958L21.2043 5.20006C21.6639 4.89371 22.2847 5.01788 22.5911 5.47741C22.7228 5.67503 22.7799 5.91308 22.7522 6.14895L21.109 20.1164C21.0497 20.62 20.6229 20.9996 20.1158 20.9996H3.8943C3.38722 20.9996 2.9604 20.62 2.90115 20.1164L1.25792 6.14895C1.19339 5.60045 1.58573 5.10349 2.13423 5.03896C2.37011 5.01121 2.60816 5.06832 2.80577 5.20006ZM12.0051 14.9996C13.1096 14.9996 14.0051 14.1042 14.0051 12.9996C14.0051 11.895 13.1096 10.9996 12.0051 10.9996C10.9005 10.9996 10.0051 11.895 10.0051 12.9996C10.0051 14.1042 10.9005 14.9996 12.0051 14.9996Z"/></svg>

<svg viewBox="0 0 24 24" xmlns="http://www.w3.org/2000/svg"><path fill="none" d="M0 0h24v24H0Z"/><path d="M2.8 5.2L7 8l4.18-5.86v0c.32-.45.94-.56 1.39-.24 .09.06.16.14.23.23l4.18 5.86 4.2-2.8v0c.45-.31 1.08-.19 1.38.27 .13.19.18.43.16.67l-1.65 13.96h0c-.06.5-.49.88-1 .88H3.84v0c-.51-.01-.94-.38-1-.89L1.19 6.11h0c-.07-.55.32-1.05.87-1.11 .23-.03.47.02.67.16ZM12 15v0c1.1 0 2-.9 2-2 0-1.11-.9-2-2-2v0c-1.11 0-2 .89-2 2 0 1.1.89 2 2 2Z"/></svg>
